X: 38743
T: Striking Clock, The
R: slip jig
M: 9/8
K: Bminor
~B3 dBf edB|~G3 Bdg fdB|~E3 Bdg fed|~f3 efe dBA|
~B3 dBf edB|~G3 Bdg fdB|~E3 Bdg fed|1 ~f3 ~g3 fed:|2 ~f3 ~g3 afa||
|:b2f abf- faf|a2f efd- dBA|B2E EDE- EBA|B2d B/c/df efa|
b2f abf- faf|a2f efd- daf|1 ~a3 ~f3 efe|d2A BAF A/B/df:|2 ~a3 ~f3 dAF|~a3 ~f3 dBA||

